styles/3/Numix/32/places/blue-folder-templates.svg

<?xml version="1.0" encoding="UTF-8" standalone="no"?>
<!-- Created with Inkscape (http://www.inkscape.org/) -->

<svg
   xmlns:dc="http://purl.org/dc/elements/1.1/"
   xmlns:cc="http://creativecommons.org/ns#"
   xmlns:rdf="http://www.w3.org/1999/02/22-rdf-syntax-ns#"
   xmlns:svg="http://www.w3.org/2000/svg"
   xmlns="http://www.w3.org/2000/svg"
   xmlns:sodipodi="http://sodipodi.sourceforge.net/DTD/sodipodi-0.dtd"
   xmlns:inkscape="http://www.inkscape.org/namespaces/inkscape"
   width="32"
   height="32"
   id="svg2"
   version="1.1"
   inkscape:version="0.91 r"
   sodipodi:docname="blue-folder-templates.svg"
   inkscape:export-filename="/media/Data/Main/Visuals/Icons/Numix/Desktop/repos/numix-wiki/Gjorgi/Numix-folders/48/New/folder-144.png"
   inkscape:export-xdpi="270"
   inkscape:export-ydpi="270">
  <defs
     id="defs4" />
  <sodipodi:namedview
     id="base"
     pagecolor="#ffffff"
     bordercolor="#666666"
     borderopacity="1.0"
     inkscape:pageopacity="0.0"
     inkscape:pageshadow="2"
     inkscape:zoom="18.953468"
     inkscape:cx="0.027212185"
     inkscape:cy="13.902804"
     inkscape:document-units="px"
     inkscape:current-layer="layer1"
     showgrid="true"
     inkscape:window-width="1280"
     inkscape:window-height="998"
     inkscape:window-x="0"
     inkscape:window-y="0"
     inkscape:window-maximized="1"
     showguides="true"
     inkscape:guide-bbox="true">
    <inkscape:grid
       type="xygrid"
       id="grid2985"
       empspacing="5"
       visible="true"
       enabled="true"
       snapvisiblegridlinesonly="true" />
  </sodipodi:namedview>
  <metadata
     id="metadata7">
    <rdf:RDF>
      <cc:Work
         rdf:about="">
        <dc:format>image/svg+xml</dc:format>
        <dc:type
           rdf:resource="http://purl.org/dc/dcmitype/StillImage" />
        <dc:title />
      </cc:Work>
    </rdf:RDF>
  </metadata>
  <g
     inkscape:label="Layer 1"
     inkscape:groupmode="layer"
     id="layer1"
     transform="translate(0,-1020.3622)">
    <rect
       style="fill:#1976d2;fill-opacity:1;stroke:none"
       id="rect3757"
       width="26"
       height="10"
       x="3"
       y="1026.3622" />
    <path
       style="fill:#1976d2;fill-opacity:1;stroke:none"
       d="m 6,1026.3622 c 0,-1 0,-2 1.454545,-2 l 5.09091,0 c 1.454545,0 1.454545,1 1.454545,2 l 0,1 -8,0 z"
       id="path3759"
       inkscape:connector-curvature="0"
       sodipodi:nodetypes="ccccccc" />
    <path
       style="fill:#95989f;fill-opacity:1;stroke:none"
       d="m 5,1028.3622 22,0 0,4.9677 -22,0 z"
       id="path3765"
       inkscape:connector-curvature="0" />
    <rect
       y="1027.3622"
       x="7"
       height="12.999977"
       width="19"
       id="rect3763"
       style="fill:#d8d8da;fill-opacity:1;stroke:none" />
    <rect
       style="fill:#f9f9f9;fill-opacity:1;stroke:none"
       id="rect3761"
       width="19"
       height="12.999977"
       x="6"
       y="1029.3622" />
    <path
       style="fill:#42a5f5;fill-opacity:1;stroke:none"
       d="m 1,1030.3622 30,0 -2.142857,18 -25.7142859,0 z"
       id="path2987"
       inkscape:connector-curvature="0"
       sodipodi:nodetypes="ccccc" />
    <path
       style="opacity:1.0;fill:#2a74b9;fill-opacity:1;stroke:none"
       d="M 10 12 C 9.446 12 9 12.446 9 13 L 9 14 L 11 14 L 11 12 L 10 12 z M 13 12 L 13 14 L 15 14 L 15 12 L 13 12 z M 17 12 L 17 14 L 19 14 L 19 12 L 17 12 z M 21 12 L 21 14 L 23 14 L 23 13 C 23 12.446 22.554 12 22 12 L 21 12 z M 9 16 L 9 18 L 11 18 L 11 16 L 9 16 z M 21 16 L 21 18 L 23 18 L 23 16 L 21 16 z M 9 20 L 9 22 L 11 22 L 11 20 L 9 20 z M 21 20 L 21 22 L 23 22 L 23 20 L 21 20 z M 9 24 L 9 25 C 9 25.554 9.446 26 10 26 L 11 26 L 11 24 L 9 24 z M 13 24 L 13 26 L 15 26 L 15 24 L 13 24 z M 17 24 L 17 26 L 19 26 L 19 24 L 17 24 z M 21 24 L 21 26 L 22 26 C 22.554 26 23 25.554 23 25 L 23 24 L 21 24 z "
       transform="translate(0,1020.3622)"
       id="rect3039" />
  </g>
</svg>

<!-- Created with Inkscape (http://www.inkscape.org/) -->
<svg xmlns="http://www.w3.org/2000/svg" viewBox="0 0 32 32">
 <g transform="translate(0,-1020.3622)">
  <rect width="26" height="10" x="3" y="1026.36" style="fill:#1976d2;fill-opacity:1;stroke:none"/>
  <path d="m 6 1026.36 c 0 -1 0 -2 1.455 -2 l 5.091 0 c 1.455 0 1.455 1 1.455 2 l 0 1 -8 0 z" style="fill:#1976d2;fill-opacity:1;stroke:none"/>
  <path d="m 5 1028.36 22 0 0 4.968 -22 0 z" style="fill:#95989f;fill-opacity:1;stroke:none"/>
  <rect y="1027.36" x="7" height="13" width="19" style="fill:#d8d8da;fill-opacity:1;stroke:none"/>
  <rect width="19" height="13" x="6" y="1029.36" style="fill:#f9f9f9;fill-opacity:1;stroke:none"/>
  <path d="m 1 1030.36 30 0 -2.143 18 -25.714 0 z" style="fill:#42a5f5;fill-opacity:1;stroke:none"/>
  <path d="m 10 12 c -0.554 0 -1 0.446 -1 1 l 0 1 l 2 0 l 0 -2 l -1 0 z m 3 0 l 0 2 l 2 0 l 0 -2 l -2 0 z m 4 0 l 0 2 l 2 0 l 0 -2 l -2 0 z m 4 0 l 0 2 l 2 0 l 0 -1 c 0 -0.554 -0.446 -1 -1 -1 l -1 0 z m -12 4 l 0 2 l 2 0 l 0 -2 l -2 0 z m 12 0 l 0 2 l 2 0 l 0 -2 l -2 0 z m -12 4 l 0 2 l 2 0 l 0 -2 l -2 0 z m 12 0 l 0 2 l 2 0 l 0 -2 l -2 0 z m -12 4 l 0 1 c 0 0.554 0.446 1 1 1 l 1 0 l 0 -2 l -2 0 z m 4 0 l 0 2 l 2 0 l 0 -2 l -2 0 z m 4 0 l 0 2 l 2 0 l 0 -2 l -2 0 z m 4 0 l 0 2 l 1 0 c 0.554 0 1 -0.446 1 -1 l 0 -1 l -2 0 z" transform="translate(0,1020.3622)" style="fill:#2a74b9;opacity:1;fill-opacity:1;stroke:none"/>
 </g>
</svg>
